spotify.svg

<?xml version="1.0" encoding="UTF-8"?>
<svg viewBox="0 0 8 8" version="1.1" xmlns="http://www.w3.org/2000/svg" xmlns:xlink="http://www.w3.org/1999/xlink">
    <title>Spotify</title>
    <g id="Page-1" stroke="none" stroke-width="1" fill="none" fill-rule="evenodd">
        <path d="M4.0000464,0 C1.7909664,0 6.96004e-05,1.79085 6.96004e-05,3.99993333 C6.96004e-05,6.20923333 1.7909664,8 4.0000464,8 C6.20921307,8 8.00001307,6.20923333 8.00001307,3.99993333 C8.00001307,1.79099 6.20931307,0.00019106 4.00001307,0.00019106 L4.0000464,0 Z M5.83441307,5.76903333 C5.76257973,5.88686667 5.6090464,5.9238 5.49161307,5.852 C4.55231307,5.27793333 3.37001307,5.14823333 1.9776764,5.4663 C1.8435064,5.49706667 1.70976307,5.41296667 1.6791964,5.27883333 C1.64848307,5.14466667 1.73221307,5.01093333 1.86671973,4.98036667 C3.39041307,4.632 4.69741307,4.78193333 5.75171307,5.4262 C5.86921307,5.4983 5.90647973,5.65163333 5.8343464,5.76913333 L5.83441307,5.76903333 Z M6.32401307,4.68006667 C6.2335464,4.82683333 6.04161307,4.87286667 5.89501307,4.78273333 C4.82007973,4.12196667 3.18092307,3.93056667 1.90918307,4.3166 C1.74424973,4.36643333 1.57005307,4.27346667 1.5199964,4.10883333 C1.47031973,3.9439 1.56331973,3.77003333 1.72796307,3.71986667 C3.18063973,3.27911 4.9865464,3.49263333 6.2212464,4.25136667 C6.36787973,4.34163333 6.41421307,4.53366667 6.3239464,4.6801 L6.32401307,4.68006667 Z M6.3660464,3.54593333 C5.07667973,2.78020333 2.94988307,2.70979667 1.7190264,3.08336667 C1.52137973,3.14331 1.31235973,3.03173 1.25246307,2.83408 C1.1925664,2.63633667 1.30404973,2.42745667 1.50184307,2.36737 C2.9147764,1.93844333 5.26361307,2.02131333 6.7478464,2.90243333 C6.9256464,3.00794333 6.98397973,3.23755 6.87857973,3.4151 C6.77351307,3.59286667 6.54327973,3.65146667 6.36607973,3.54593333 L6.3660464,3.54593333 Z" id="spotify" fill="#2EBD59" fill-rule="nonzero"></path>
    </g>
</svg>

<svg viewBox="0 0 8 8" xmlns="http://www.w3.org/2000/svg"><path d="M4 0a4 4 0 1 0 0 8 4 4 0 0 0 0-8Zm1.834 5.769a.25.25 0 0 1-.342.083c-.94-.574-2.122-.704-3.514-.386a.25.25 0 1 1-.111-.486c1.523-.348 2.83-.198 3.885.446a.25.25 0 0 1 .082.343Zm.49-1.089a.312.312 0 0 1-.429.103c-1.075-.661-2.714-.852-3.986-.466a.312.312 0 0 1-.181-.597c1.453-.44 3.259-.227 4.493.531.147.09.193.283.103.43Zm.042-1.134c-1.29-.766-3.416-.836-4.647-.463a.374.374 0 1 1-.217-.716c1.413-.429 3.762-.346 5.246.535a.374.374 0 0 1-.382.644Z" fill="#2EBD59" fill-rule="nonzero"/></svg>
